svgs/asus_camera.svg

<svg width="24" height="24" viewBox="0 0 24 24" fill="none" xmlns="http://www.w3.org/2000/svg">
<path d="M12 16.1667C14.025 16.1667 15.6667 14.525 15.6667 12.5C15.6667 10.475 14.025 8.83333 12 8.83333C9.97496 8.83333 8.33333 10.475 8.33333 12.5C8.33333 14.525 9.97496 16.1667 12 16.1667Z" fill="#FFF1C0"/>
<path fill-rule="evenodd" clip-rule="evenodd" d="M7 4C7 3.44772 7.44772 3 8 3H16C16.5523 3 17 3.44772 17 4V6H21C21.5523 6 22 6.44772 22 7V19C22 19.5523 21.5523 20 21 20H3C2.44772 20 2 19.5523 2 19V7C2 6.44772 2.44772 6 3 6H7V4ZM12 18C15.0376 18 17.5 15.5376 17.5 12.5C17.5 9.46243 15.0376 7 12 7C8.96243 7 6.5 9.46243 6.5 12.5C6.5 15.5376 8.96243 18 12 18ZM20 9C20 9.55229 19.5523 10 19 10C18.4477 10 18 9.55229 18 9C18 8.44771 18.4477 8 19 8C19.5523 8 20 8.44771 20 9Z" fill="#FFF1C0"/>
</svg>

<svg xmlns="http://www.w3.org/2000/svg" viewBox="0 0 24 24"><path fill-rule="evenodd" d="M7 4a1 1 0 0 1 1-1h8a1 1 0 0 1 1 1v2h4a1 1 0 0 1 1 1v12a1 1 0 0 1-1 1H3a1 1 0 0 1-1-1V7a1 1 0 0 1 1-1h4zm5 14a5.5 5.5 0 1 0 0-11 5.5 5.5 0 0 0 0 11m8-9a1 1 0 1 1-2 0 1 1 0 0 1 2 0m-8 7.167a3.667 3.667 0 1 0 0-7.334 3.667 3.667 0 0 0 0 7.334"/></svg>
